X: 40
T:Palestine Song
T:Nu alrest leb ich mir werde
C:Walther von der Vogelweide, 1204
G:recruiting song for the Fourth Crusade
S:S.S. Prawer, Penguin Book of Lieder
N:the rhythm is often interpreted differently
M:3/4
L:1/8
Q:1/4=120
K:DDor
   D2 D4   |F2 F2 E2|D2 DE FE|  D2  D2 C2|
   E2 G4   |A2 AG F2|F2 DC D2|(3EFE D2
D2|D2 D4   |F2 F4   |D2 DE FE|  D2  D2 C2|
   E2 G4   |A2 AG F2|F2 DC D2|(3EFE D2
A2|A2 c4   |c2 A2 G2|A2 c2 B2|  A6       |
   A2 cB A2|G2 GF ED|E2 FE D2|  C6       |
   E2 G4   |A2 AG F2|E2 DC D2|(3EFE D4  |]

